X: 35619
T: Saffron And Blue
R: reel
M: 4/4
K: Gmajor
DF|:GBdg bagf|gdBe d/e/d BG|FGAB cBce|agfe fdcA|
GBdg bagf|gdBe d/e/d BG|FGAB cAFG|1 AGGF G2DF:|2 AGGF G2zB||
AF (3FFF Adcd|BGBd g2ag|fgag fdcA|d/e/dcd AdFd|
AF (3FFF Adcd|BGBd g2ag|fgag fdcA|FGAB BGGB|
AD (3DDD CDA,D|BGBd g2ag|fgag fdcA|d/e/dcd AdFd|
AF (3FFF Adcd|BGBd g2ag|fgag fdcA|FGAB BGGB|"Coda" FDCA, G,4|

